storage/app/icons/phosphoricons/bold/copy-simple-bold.svg

<svg xmlns="http://www.w3.org/2000/svg" fill="currentColor" viewBox="0 0 256 256"><path d="M180 64H40a12 12 0 0 0-12 12v140a12 12 0 0 0 12 12h140a12 12 0 0 0 12-12V76a12 12 0 0 0-12-12m-12 140H52V88h116Zm60-164v140a12 12 0 0 1-24 0V52H76a12 12 0 0 1 0-24h140a12 12 0 0 1 12 12"/></svg>

<svg xmlns="http://www.w3.org/2000/svg" viewBox="0 0 256 256" fill="currentColor"><path d="M180,64H40A12,12,0,0,0,28,76V216a12,12,0,0,0,12,12H180a12,12,0,0,0,12-12V76A12,12,0,0,0,180,64ZM168,204H52V88H168ZM228,40V180a12,12,0,0,1-24,0V52H76a12,12,0,0,1,0-24H216A12,12,0,0,1,228,40Z"/></svg>
